X: 27192
T: Miss Mullen
R: reel
M: 4/4
K: Gmajor
|:(3GGG FG EGDE|GEB,G, A,G,E,G,|(3GGG FG EGDG|(3EFG FA GDEF|
(3GGG FG EGDE|GEB,G, A,G,E,D,|G,B,B,A, G,A,B,D|(3EFG FA2< G2E:|
|:DG, (3G,G,G, DG,EG|DG,B,G, A,G,E,G,|DG, (3G,G,G, DG,B,D|(3EFG FA GF GE|
DG, (3G,G,G, DG, EG|DG,B,G, A,G,E,G,|DG, (3G,G,G, DG,B,D|(3EFG FA GFGE:|

